X:39
T:Untitled. MBe.39
S:Matthew Betham MS, Towcett Cumbria, 1815
O:England;Cumbria;Towcett
Z:VMP – Hugh Taylor, 2012
M:6/8
L:1/8
Q:3/8=100
R:.Jig
N:These 8 bars also appeared on page 18, and are assumed to be the B part of High Dance.
K:G
d|{dg}} b2 g dBd|e2 g B3|cde G2 G|A2 B D2 d|
{dg} b2 g dBd|e2 g B3|cde dBG|cAF!fermata!G2:|

